X:1
T:Confitebor tibi Domine - Ortiz
T:#
%%score [ 1 { 2 | 3 } 4 ]
L:1/8
Q:1/4=200
M:none
K:C
V:1 treble nm="Alto" snm="A"
V:2 treble-8 nm="Tenor" snm="T"
V:3 treble-8 
V:4 bass nm="Bass" snm="B"
V:1
 x16 x6 ||"^Confitebor tibi Domine""^Diego Ortiz\n(1510-1570)"[Q:1/4=200] A12 A4 x16 | %2
w: |In con-|
 A4 A4 A4 A4 | A8 A4 A4 | A12 G4 | (A8 B8- | B4) G4 G8 | E16- | E16 | E16 ||[Q:1/4=130] z16 | %11
w: si- li- o ju-|sto- rum, et|con- gre-|ga\- *|* ti- o-|ne.||||
 z20 || A8 A4 A4 | A4 A4 A8 | A4 A4 A4 A4 | A8 G4 (c4- | c4 B2 A2 B4) (A4- | %17
w: |Con- fes- si-|o et ma-|gni- fi- cen- ti-|a o- pus|* * * * e\-|
 A2 ^G^F G4) !fermata!A16 || A12 A4 | A8 A4 A4 | A4 A4 A8- | A4 G4 (A8 | B8) G8- | G4 E4 E4 (F4- | %24
w: * * * * ius:|Et iu-|sti- ti- a|e- ius ma\-|* net in|* sae\-|* cu- lum sae\-|
 F4 E6 D^C) D4 | E16- | E16 ||[Q:1/4=130][Q:1/4=130][Q:1/4=130] z18 | z20 || z18 || %30
w: * * * * cu-|li.|||||
[Q:1/4=200][Q:1/4=200][Q:1/4=200][Q:1/4=200] A12 A4 | A8 A4 A4 | A4 A4 A8 | A4 A4 A4 A4 | %34
w: Me- mor|e- rit in|sae- cu- lum|te- sta- men- ti|
 (G12 ^F2 E2) | !fermata!^F16 || A8 A4 A4 | A4 A4 (G6 A2 | B4) (c6 B2) (A4- | A4 ^G4) !fermata!A8 | %40
w: su\- * *|i:|vir- tu- tem|o- pe- rum *|* su\- * o\-|* * rum|
 A8 A4 A4 | A4 A4 A8- | A4 G4 (A8 | B8) (G8- | G4 F2 E2 F4 E4- | E4 D4) E8- | E16 || %47
w: an- nun- ti-|a- bit po\-|* lu- lo|* su\-||* * o.||
[Q:1/4=130][Q:1/4=130][Q:1/4=130][Q:1/4=130] x16 x4 | x16 x4 ||[Q:1/4=200] A8 A4 A4 x16 | %50
w: ||Fi- de- li-|
 A8 A4 A4 |[Q:1/4=200][Q:1/4=200][Q:1/4=200] A4 A4 A4 A4 | G8 !fermata!^F16 || A12 A4 | A8 A4 A4 | %55
w: a o- mni-|a man- da- ta|e- ius:|con- fir-|ma- ta in|
 A12 A4 | (G6 A2 B4) (c4- | c2 B2 A8) ^G4 | A16 | A8 A4 A4 | A4 A4 A8 | A4 A4 G8 | A16 | (B16 | %64
w: sae- cu-|lum * * sae\-|* * * cu-|li,|fa- cta in|ve- ri- ta-|te et ae-|qui-|ta\-|
 G16) | E16- | E24 ||[Q:1/4=130][Q:1/4=130][Q:1/4=130] z18 | z20 || %69
w: |te.||||
[Q:1/4=200][Q:1/4=200][Q:1/4=200] A12 A4 | A4 A4 A4 A4 | A8 G8- | G4 A4 (B4 A4- | %73
w: San- ctum|et ter- ri- bi-|le no\-|* men e\- *|
 A2 ^G^F G4) !fermata!A16 || A8 A4 A4 | A8 A4 A4 | A4 A4 A8 | (G8 A8) | B8 G8- | G16 | E8 E8- | %81
w: * * * * ius:|i- ni- ti-|um sa- pi-|en- ti- ae|ti\- *|mor Do\-||mi- ni.|
 E24 ||[Q:1/4=130][Q:1/4=130][Q:1/4=130] z18 | z20 ||[Q:1/4=200][Q:1/4=200][Q:1/4=200] A8 A4 A4 | %85
w: |||Glo- ri- a|
 (A12 G4) | A12 B4 | (c8 B4 A4- | A4) ^G4 !fermata!A16 || A8 A4 A4 | G8 (A8 | B12 G4) | %92
w: Pa\- *|tri, et|Fi\- * *|* li- o,|et Spi- ri-|tu- i||
 (G6 F2 E4 F4- | F4 E8 D4) | E16- | E16 | E16 ||[Q:1/4=130][Q:1/4=130][Q:1/4=130][Q:1/4=130] z18 | %98
w: san\- * * *||cto.||||
 z20 |] %99
w: |
V:2
 x16 x6 || e12 f4 f4 f4 f4 f4 | x16 | f8 f4 f4 | f8 (e8- | e4 f4 g8- | g4) d4 e4 (e4- | %7
w: |In con- si- li- o ju-||sto- rum, et|con- gre\-||* ga- ti- o\-|
 e2 d2 c2 B2 A4 B4 | c8) B8- | B16 || x16 | x20 || e8 f4 f4 | f4 f4 f8 | f4 f4 f4 f4 | f8 e4 g4- | %16
w: |* ne.||||Con- fes- si-|o et ma-|gni- fi- cen- ti-|a o- pus|
 g4 (g6 f2 e2 d2 | e8) !fermata!e16 || e12 e4 | f8 f4 f4 | f8 e8 | (e12 f4) | g4 d8 e4 | %23
w: * e\- * * *|* ius:|Et iu-|sti- ti- a|e- ius|ma\- *|net in sae-|
 B4 (c6 B2 A2 G2 | A8) (A6 B2 | c4) c4 B8- | B16 || x18 | x20 || x18 || e12 e4 | f8 e4 e4 | %32
w: cu- lum * * *|* sae\- *|* cu- li.|||||Me- mor|e- rit in|
 f4 f4 f8 | f4 f4 f4 f4 | d8 d8- | !fermata!d16 || f8 f4 f4 | f4 f4 e8- | e4 e4 (c4 d4 | %39
w: sae- cu- lum|te- sta- men- ti|su- i:||vir- tu- tem|o- pe- rum|* su- o\- *|
 e8 !fermata!e8 | f8 f4 f4 | f4 (f6 e2 c2 d2 | e4) e8 d2 c2 | d8 d4 e4- | e4 d2 c2 d4) c4- | %45
w: * rum|an- nun- ti-|a- bit * * *|* po\- * *|* lu- lo|* * * * su\-|
 c4 B2 A2 B8- | B16 || x16 x4 | x16 x4 || e8 f4 f4 f8 f4 f4 | x16 | f4 f4 d4 (d4- | %52
w: * * * o.||||Fi- de- li- a o- mni-||a man- da- ta|
 d2 ^cB) c4 !fermata!d16 || e12 e4 | f8 e4 f4 | f12 f4 | e12 (e4 | c4 d4) e8 | e16 | f8 f4 f4 | %60
w: * * * e- ius:|con- fir-|ma- ta in|sae- cu-|lum sae\-|* * cu-|li,|fa- cta in|
 f4 f4 e8 | d4 f4 e8 | e4 (e8 d2 c2 | d8) d4 e4 | e12 d4 | c16 | B24 || x18 | x20 || e12 f4 | %70
w: ve- ri- ta-|te et ae-|qui- ta\- * *|* te, et|ae- qui-|ta-|te.|||San- ctum|
 f4 f4 f4 f4 | f8 e8- | e4 e4 (e4 c2 d2 | e8) !fermata!e16 || e8 f4 f4 | e8 f4 f4 | f4 f4 f8 | %77
w: et ter- ri- bi-|le no\-|* men e\- * *|* ius:|i- ni- ti-|um sa- pi-|en- ti- ae|
 (e8 f8) | g4 d8 e4 | e4 e8 c4 | c8 c8 | B24 || x18 | x20 || e8 f4 f4 | (f12 e2 d2 | c4) f4 f8 | %87
w: ti\- *|mor Do- mi-|ni. ti- mor|Do- mi-|ni.|||Glo- ri- a|Pa\- * *|* tri, et|
 (e12 c2 d2) | e8 !fermata!e16 || f8 f4 f4 | e12 f4 | g8 d8 | (e6 d2 B2 c2 d4- | d4 c6 B2 A4- | %94
w: Fi\- * *|li- o,|et Spi- ri-|tu- i|san- cto,|san\- * * * *||
 A4 ^G4 A8- | A4 B4 c8) | B16 || x18 | x20 |] %99
w: ||cto.|||
V:3
 A2 G2 A8 G2 A2 B2 A4 || A12 c4 x16 | c4 c4 c4 c4 | c8 c4 c4 | d8 B8 | c4 c4 d8 | B12 G4 | %7
w: Con- fi- tebor~tibi~Domine~in~toto cor- de me- o:|In con-|si- li- o ju-|sto- rum, et|con- gre-|ga- ti- o-|ne, et|
 G4 A4 c4 B4 | (A12 ^G2 ^F2) | ^G16 ||[I:staff -1] A4 G2 A2 B2 A2 A4 | A8 G2 A2 B2 G2 E4 || %12
w: con- gre- ga- ti-|o\- * *|ne.|Magna~o- pe- ra Do- mi- ni~:|exquisita~in~omnes~vo- lun- ta- tes e- ius.|
[I:staff +1] A8 c4 c4 | c4 d4 c8 | c4 c4 c8 | d8 B4 e4- | e4 e4 (d4 c4 | B8) !fermata!A16 || %18
w: Con- fes- si-|o et ma-|gni- fi- cen-|ti- a o-|pus * e\- *|* ius:|
 ^c12 c4 | d8 d4 d4 | c4 (A6 B2 c2 A2 | B8) c8 | d4 B4 B8 | G4 (G8 F2 E2) | D4 E4 F8 | %25
w: Et iu-|sti- ti- a|e- ius * * *|* ma-|net in sae-|cu- lum * *|sae- cu- li,|
 (E4 A8 ^G2) ^F2 | ^G16 ||[I:staff -1] A8 G2 A2 B2 A4 | A8 G2 A2 B2 G2 E4 || A8 G2 A2 B2 A4 || %30
w: sae\- * * cu-|li.|Memoriam~fecit~mirabili- um su- o- rum,|misericors~et~mise- ra- tor Do- mi- nus.|Escam~dedit~ti- men- ti- bus se:|
[I:staff +1] ^c12 c4 | d8 =c4 c4 | d4 d4 c8 | c4 c4 c4 c4 | B8 A8- | !fermata!A16 || c8 c4 c4 | %37
w: Me- mor|e- rit in|sae- cu- lum|te- sta- men- ti|su- i:||vir- tu- tem|
 c4 d4 B8 | G8 A8 | B8 !fermata!A8 | c8 c4 c4 | d4 d4 c4 A4 | (B8 A8) | G6 A2 B4 c4- | %44
w: o- pe- rum|su- o\-|* rum|an- nun- ti-|a- bit po- lu-|lo *|su\- * * *|
 c2 B2 A2 G2 F4 G4 | A12 ^G2 ^F2 | ^G16 || A8 G2 A2 B2 A2 A4 | A8 G2 A2 B2 G2 E4 || A8 c4 c4 x16 | %50
w: ||o.|Ut~det~illis~haeredi- ta- tem gen- ti- um.|Opera~manuum~eius~veritas et ju- di- ci- um.|Fi- de- li-|
 c8 c4 A4 | A4 F4 F4 F4 | G8 !fermata!A16 || ^c12 c4 | d8 =c4 A4- | A4 c8 d4 | B8 G8 | A8 B8 | %58
w: a o- mni-|a man- da- ta|e- ius:|con- fir-|ma- ta in|* sae- cu-|lum sae\-|* cu-|
 A16 | c8 c4 c4 | c4 (d6 ^cB) c4 | d4 d4 B8 | c4 c6 B2 A4 | (G6 A2 B4) B4- | B4 c8 B4 | %65
w: li,|fa- cta in|ve- ri\- * * ta-|te et ae-|qui- ta\- * *|te, * * et|* ae- qui-|
 (A8 G4 A4- | A4 ^G2 ^F2) G16 ||[I:staff -1] A8 G2 A2 B2 A4 | A8 G2 A2 B2 G2 E4 || %69
w: ta\- * *|* * * te.|Redemptionem~misit~po- pu- lo su- o:|mandavit~in~æternum~te- sta- men- tum su- um.|
[I:staff +1] A12 c4 | c4 c4 c4 d4 | d8 B8- | B4 A4 G4 A4 | B8 !fermata!A16 || ^c8 d4 d4 | %75
w: San- ctum|et ter- ri- bi-|le no\-|* men e\- *|* ius:|i- ni- ti-|
 =c8 d4 d4 | d4 d4 d8 | (B8 d8- | d4) B4 B8 | G4 G8 G4- | G4 A4 A8- | %81
w: um sa- pi-|en- ti- ae|ti\- *|* mor Do-|mi- ni. ti\-|* mor Do\-|
 A4 (^G2 ^F2) !courtesy!^G16 ||[I:staff -1] A8 G2 A2 B2 A4 | A8 G2 A2 B2 G2 E4 || %84
w: * mi\- * ni.|Intellectus~bonus~omnibus~facien- ti- bus e- um:|laudatio~eius~manet~in~sae- cu- lum sae- cu- li.|
[I:staff +1] ^c8 d4 d4 | d12 B4 | (A6 B2 c4) d4 | (G12 A4) | B8 !fermata!A16 || c8 c4 d4 | B8 c8 | %91
w: Glo- ri- a|Pa\- *|tri, * * et|Fi\- *|li- o,|et Spi- ri-|tu- i|
 d8 B4 B4- | B4 G8 A4- | A4 G4 A8 | B8 c8- | c4 B4 A8 | ^G16 ||[I:staff -1] A8 G2 A2 B2 A4 | %98
w: san- cto, et|* Spi- ri\-|* tu- i|* san\-||cto.|Sicut~erat~in~principio,~et nunc et sem- per:|
 A8 G2 A2 B2 G2 E4 |] %99
w: et~in~saecula~sae- cu- lo- rum. A- men.|
V:4
 x16 x6 || A,12 F,4 x16 | F,4 F,4 F,4 F,4 | F,8 F,4 F,4 | D,8 (E,8 | A,8) G,8- | G,4 G,4 (E,6 D,2 | %7
w: |In con-|si- li- o ju-|sto- rum, et|con- gre\-|* ga\-|* ti- o\- *|
 C,2 B,,2 A,,8 ^G,,4 | A,,8) E,8- | E,16 || z16 | z20 || A,8 F,4 F,4 | F,4 D,4 F,8 | %14
w: |* ne.||||Con- fes- si-|o et ma-|
 F,4 F,4 F,4 F,4 | D,8 E,4 (C,4- | C,2 D,2 E,2 F,2 G,4) (A,4 | E,8) !fermata!A,,16 || A,,12 A,,4 | %19
w: gni- fi- cen- ti-|a o- pus|* * * * * e\-|* ius:|Et iu-|
 D,8 D,4 D,4 | (F,6 G,2 A,8) | E,8 A,8 | G,12 E,4 | E,4 C,8 (D,4- | D,4 ^C,4) D,8 | A,,8 E,8- | %26
w: sti- ti- a|e\- * *|ius ma-|net in|sae- cu- lum|* * sae-|cu- li.|
 E,16 || z18 | z20 || z18 || A,,12 A,,4 | D,8 A,,4 A,4 | D,4 D,4 F,8 | F,4 F,4 F,4 F,4 | G,8 D,8- | %35
w: ||||Me- mor|e- rit in|sae- cu- lum|te- sta- men- ti|su- i:|
 !fermata!D,16 || F,8 F,4 F,4 | F,4 D,4 E,8- | E,4 C,4 (F,8 | E,8 !fermata!A,,8 | F,8 F,4 F,4 | %41
w: |vir- tu- tem|o- pe- rum|* su- o\-|* rum|an- nun- ti-|
 D,4 D,4 (F,8 | E,6 D,2 ^C,4) D,4 | G,,4 G,6 F,2 E,2 D,2 | C,4 D,8 E,4 | F,8) E,8- | E,16 || %47
w: a- bit po\-|* * * lu-|lo su\- * * *||* o.||
 x16 x4 | x16 x4 || A,8 F,4 F,4 x16 | F,8 F,4 F,4 | D,4 D,4 D,4 D,4 | E,8 !fermata!D,16 || %53
w: ||Fi- de- li-|a o- mni-|a man- da- ta|e- ius:|
 A,,12 A,,4 | D,8 A,,4 D,4 | F,12 D,4 | E,12 C,4 | (F,8 E,8) | A,,16 | F,8 F,4 F,4 | F,4 D,4 A,8 | %61
w: con- fir-|ma- ta in|sae- cu-|lum sae-|cu\- *|li,|fa- cta in|ve- ri- ta-|
 D,4 D,4 E,8 | (A,,6 B,,2 C,4) D,4 | G,,4 (G,6 F,2) (E,4- | E,2 D,2 C,6 B,,2) G,,4 | %65
w: te et ae-|qui\- * * ta-|te, et * ae\-|* * * * qui-|
 (A,,6 B,,2 C,4 A,,4) | E,24 || z18 | z20 || A,12 F,4 | F,4 F,4 F,4 D,4 | D,8 E,8- | %72
w: ta\- * * *|te.|||San- ctum|et ter- ri- bi-|le no\-|
 E,4 A,,4 (E,4 F,4 | E,8) !fermata!A,,16 || A,8 D,4 D,4 | A,8 D,4 D,4 | D,4 D,4 D,8 | (E,8 D,8) | %78
w: * men e\- *|* ius:|i- ni- ti-|um sa- pi-|en- ti- ae|ti\- *|
 G,,4 G,8 E,4 | E,8 C,8- | C,4 A,,4 A,,4 A,,4 | E,24 || z18 | z20 || A,,8 D,4 D,4 | (D,12 E,4) | %86
w: mor Do- mi-|ni. ti\-|* mor Do- mi-|ni.|||Glo- ri- a|Pa\- *|
 F,12 D,4 | (C,6 D,2 E,4 F,4) | E,8 !fermata!A,,16 || F,8 F,4 D,4 | (E,8 A,8) | G,16 | %92
w: tri, et|Fi\- * * *|li- o,|et Spi- ri-|tu\- *|i|
 (E,12 D,2 C,2 | D,4 E,4 F,8) | E,8 (A,,8- | A,,4 ^G,,4 A,,8) | E,16 || z18 | z20 |] %99
w: san\- * *||cto, san\-||cto.|||

